X: 19054
T: Iontráil Na dTuismitheoirí
R: slide
M: 12/8
K: Gmajor
g2d B2G def g3|gfe dcB Adc B2G|
g2d B2G def g3|gfe dcB AGF G3||
GBd d^cd dcd B2G|Gce e^de gfe d3|
GBd d^cd dcd B2G|gfe gfe ed^c d3||

